Pods/ProtonCore-UIFoundations/libraries/UIFoundations/Sources/Assets.xcassets/Images/IconSet/ic-filing-cabinet.imageset/ic-filing-cabinet.svg

<svg width="24" height="24" viewBox="0 0 24 24" fill="none" xmlns="http://www.w3.org/2000/svg">
<path fill-rule="evenodd" clip-rule="evenodd" d="M6 3H18C18.8284 3 19.5 3.67157 19.5 4.5V11.25H4.5V4.5C4.5 3.67157 5.17157 3 6 3ZM3 12V4.5C3 2.84315 4.34315 1.5 6 1.5H18C19.6569 1.5 21 2.84315 21 4.5V12V19.5C21 21.1569 19.6569 22.5 18 22.5H6C4.34315 22.5 3 21.1569 3 19.5V12ZM19.5 12.75V19.5C19.5 20.3284 18.8284 21 18 21H6C5.17157 21 4.5 20.3284 4.5 19.5V12.75H19.5ZM16.5 7.5C16.5 8.32843 15.8284 9 15 9L9 9C8.17157 9 7.5 8.32843 7.5 7.5V6.75C7.5 6.33579 7.83579 6 8.25 6C8.66421 6 9 6.33579 9 6.75V7.5L15 7.5V6.75C15 6.33579 15.3358 6 15.75 6C16.1642 6 16.5 6.33579 16.5 6.75V7.5ZM15 18C15.8284 18 16.5 17.3284 16.5 16.5V15.75C16.5 15.3358 16.1642 15 15.75 15C15.3358 15 15 15.3358 15 15.75V16.5H9V15.75C9 15.3358 8.66421 15 8.25 15C7.83579 15 7.5 15.3358 7.5 15.75V16.5C7.5 17.3284 8.17157 18 9 18H15Z" fill="#0C0C14"/>
</svg>

<svg xmlns="http://www.w3.org/2000/svg" width="24" height="24" viewBox="0 0 24 24">
  <g class="ic-filing-cabinet">
    <path fill-rule="evenodd" d="M6 3h12a1.5 1.5 0 0 1 1.5 1.5v6.75h-15V4.5A1.5 1.5 0 0 1 6 3Zm-3 9V4.5a3 3 0 0 1 3-3h12a3 3 0 0 1 3 3v15a3 3 0 0 1-3 3H6a3 3 0 0 1-3-3V12Zm16.5.75v6.75A1.5 1.5 0 0 1 18 21H6a1.5 1.5 0 0 1-1.5-1.5v-6.75h15Zm-3-5.25A1.5 1.5 0 0 1 15 9H9a1.5 1.5 0 0 1-1.5-1.5v-.75a.75.75 0 0 1 1.5 0v.75h6v-.75a.75.75 0 0 1 1.5 0v.75ZM15 18a1.5 1.5 0 0 0 1.5-1.5v-.75a.75.75 0 0 0-1.5 0v.75H9v-.75a.75.75 0 0 0-1.5 0v.75A1.5 1.5 0 0 0 9 18h6Z" class="Icon"/>
  </g>
</svg>
